brandFactory_export/1.Light/Ordenador_1Light.svg

<?xml version="1.0" encoding="UTF-8"?>
<svg width="24px" height="24px" viewBox="0 0 24 24" version="1.1" xmlns="http://www.w3.org/2000/svg" xmlns:xlink="http://www.w3.org/1999/xlink">
    <title>1.Light/Ordenador_1Light</title>
    <g id="Symbols" stroke="none" stroke-width="1" fill="none" fill-rule="evenodd">
        <g id="1.Light/Ordenador_1Light" fill="#5CB615" fill-rule="nonzero">
            <path d="M3.79495798,18.1092437 C2.54453782,18.1092437 1.58655462,17.7697479 0.937815126,17.1008403 C0.315966387,16.4554622 0,15.5176471 0,14.3176471 L0,6.78487395 C0,5.58487395 0.315966387,4.65378151 0.937815126,4.01848739 C1.57983193,3.35966387 2.54117647,3.02689076 3.79159664,3.02689076 L19.8184874,3.01680672 C21.0689076,3.01680672 22.0302521,3.34957983 22.6722689,4.00840336 C23.2941176,4.64705882 23.610084,5.57815126 23.610084,6.77478992 L23.610084,14.307563 C23.610084,15.507563 23.2941176,16.4453782 22.6722689,17.0907563 C22.0268908,17.7596639 21.0655462,18.0991597 19.8151261,18.0991597 L3.79495798,18.1092437 L3.79495798,18.1092437 Z M19.8218487,3.68907563 L3.79495798,3.69915966 C1.69411765,3.69915966 0.672268908,4.70756303 0.672268908,6.78487395 L0.672268908,14.3176471 C0.672268908,15.3394958 0.924369748,16.1159664 1.42184874,16.6336134 C1.93613445,17.1680672 2.73277311,17.4369748 3.79495798,17.4369748 L19.8218487,17.4268908 C20.8806723,17.4268908 21.6806723,17.1579832 22.194958,16.6235294 C22.692437,16.1092437 22.9445378,15.3294118 22.9445378,14.307563 L22.9445378,6.77478992 C22.9411765,4.69747899 21.9193277,3.68907563 19.8218487,3.68907563 Z M0.336134454,20.0857143 C0.151260504,20.0857143 0,19.9344538 0,19.7495798 C0,19.5647059 0.151260504,19.4134454 0.336134454,19.4134454 L23.2773109,19.4033613 C23.4621849,19.4033613 23.6134454,19.5546218 23.6134454,19.7394958 C23.6134454,19.9243697 23.4621849,20.0756303 23.2773109,20.0756303 L0.336134454,20.0857143 Z" id="Ordenador_1Light"></path>
        </g>
    </g>
</svg>

<svg width="24" height="24" viewBox="0 0 24 24" xmlns="http://www.w3.org/2000/svg"><path d="M3.795 18.11c-1.25 0-2.208-.34-2.857-1.01C.316 16.456 0 15.519 0 14.319V6.785c0-1.2.316-2.131.938-2.767.642-.658 1.603-.991 2.854-.991l16.026-.01c1.25 0 2.212.333 2.854.991.622.64.938 1.57.938 2.767v7.533c0 1.2-.316 2.137-.938 2.783-.645.669-1.606 1.008-2.857 1.008l-16.02.01zM19.822 3.69L3.795 3.7C1.695 3.7.672 4.707.672 6.784v7.533c0 1.021.252 1.798.75 2.316.514.534 1.31.803 2.373.803l16.027-.01c1.059 0 1.859-.269 2.373-.803.497-.515.75-1.295.75-2.316V6.775c-.004-2.078-1.026-3.086-3.123-3.086zM.336 20.085A.337.337 0 010 19.75c0-.185.151-.337.336-.337l22.941-.01c.185 0 .336.152.336.336a.337.337 0 01-.336.337l-22.94.01z" fill="#5CB615" fill-rule="nonzero"/></svg>
